Origami/48x48/apps/openttd.svg

<svg width="48" height="48" version="1" xmlns="http://www.w3.org/2000/svg">
 <path d="m4.4595685 26.106063 18.43437 18.434369c0.612758 0.612758 1.599366 0.612759 2.212124 0l18.43437-18.434369c0.612758-0.612759 0.612758-1.599366 0-2.212124l-18.43437-18.434369c-0.612758-0.612759-1.599366-0.612759-2.212124 0l-18.43437 18.434369c-0.6127589 0.612758-0.6127582 1.599365 0 2.212124zm-0.098478 4.048701 14.484146 14.484146c0.481454 0.481454 1.256645 0.481454 1.738098 1e-6l14.484146-14.484146c0.481454-0.481453 0.481454-1.256645 0-1.738098l-14.484146-14.484146c-0.481453-0.481453-1.256644-0.481453-1.738098 1e-6l-14.484146 14.484146c-0.4814528 0.481452-0.4814528 1.256644 0 1.738096zm8.5714275 0 14.484147 14.484146c0.481453 0.481452 1.256644 0.481452 1.738097 0l14.484146-14.484146c0.481454-0.481454 0.481454-1.256645 1e-6 -1.738098l-14.484147-14.484146c-0.481453-0.481453-1.256644-0.481453-1.738098 0l-14.484147 14.484146c-0.481452 0.481453-0.481452 1.256644 1e-6 1.738098z" style="opacity:.2"/>
 <rect transform="matrix(.7071068 .70710677 .7071068 -.70710677 0 0)" x="22.47" y="-17.53" width="22.942" height="22.942" rx="1.229" ry="1.229" style="fill:#4bae4f"/>
 <rect transform="matrix(.7071068 .70710677 .7071068 -.70710677 0 0)" x="28.53" y="-11.47" width="22.942" height="22.942" rx="1.229" ry="1.229" style="fill:#4bae4f"/>
 <rect transform="matrix(.7071068 .70710677 .7071068 -.70710677 0 0)" x="19.34" y="-14.6" width="29.199" height="29.199" rx="1.564" ry="1.564" style="fill:#f58411"/>
 <path d="m23.999024 4.0000006c-0.399841 0-0.799089 0.1526052-1.105469 0.4589844l-18.433594 18.433594c-0.436004 0.436004-0.555561 1.060268-0.371094 1.605469 0.074854-0.220362 0.194812-0.429187 0.371094-0.605469l18.433594-18.433594c0.612759-0.6127584 1.600133-0.6127584 2.212891 0l18.433594 18.433594c0.176282 0.176282 0.296239 0.385107 0.371094 0.605469 0.184466-0.545201 0.06491-1.169465-0.371094-1.605469l-18.433594-18.433594c-0.306379-0.3063792-0.70758-0.4589844-1.107422-0.4589844z" style="fill:#ffffff;opacity:.2"/>
 <g transform="matrix(.6559797 0 0 .67752773 2.6666667 3.6666669)" style="opacity:.2">
  <path d="m34.045769 42.310691c1.437009-0.127169 1.855842-0.447901 2.606139-1.14733 0.763013-0.699429 0.950881-1.580443 0.950881-2.788548 0-1.093653-0.03254-2.527426-0.782839-3.290439-0.750297-0.763013-1.324456-1.235185-2.774181-1.629409zm-3.048875-21.646838c-1.30984 0.08902-2.009636 0.624245-2.734499 1.29824-0.724863 0.661279-0.822522 1.518059-0.822522 2.637146 0 1.017351 0.06587 1.896427 0.727145 2.570422 0.673995 0.673995 1.405584 0.945799 2.829876 1.365456zm-7.622187 21.646838v-4.919848h2.032583c0.05087 1.742214 0.629647 2.489351 1.596132 3.379533 0.966484 0.890183 2.085938 1.502164 3.993472 1.540315v-8.855726c-2.924885-0.813881-4.661108-2.2922-5.843779-3.347702-1.182671-1.068219-1.778408-2.479836-1.778408-4.234767 0-2.034703 0.70383-3.668781 2.102688-4.90232 1.398859-1.233539 3.026988-2.122645 5.519499-2.275247v-4.919355h3.048875v4.919848c1.389741 0.305706 1.797378 0.514576 2.876829 0.825028 1.185074 0.340829 2.597263 0.718931 3.729066 1.240324v4.822435h-2.032583c-0.152603-1.47516-0.952545-2.463879-1.83001-3.31591-0.877466-0.852032-1.418268-1.489486-2.743302-1.603938v8.855726c3.128355 0.852031 4.491875 1.751771 5.73813 2.858141 1.258972 1.093653 1.884057 2.185697 1.884057 4.029646 0 2.111004-0.733179 4.179108-2.208338 5.450797s-2.730585 2.230205-5.413849 2.420959v4.919848h-3.048875v-4.919848c-1.220822-0.02543-2.168598-0.430765-3.478437-0.761405-1.30984-0.317922-2.719458-0.570689-4.14375-1.206534z"/>
 </g>
 <g transform="matrix(.6559797 0 0 .67752773 2.6666667 2.6666669)" style="fill:#ffffff">
  <path d="m34.045769 42.310691c1.437009-0.127169 1.855842-0.447901 2.606139-1.14733 0.763013-0.699429 0.950881-1.580443 0.950881-2.788548 0-1.093653-0.03254-2.527426-0.782839-3.290439-0.750297-0.763013-1.324456-1.235185-2.774181-1.629409zm-3.048875-21.646838c-1.30984 0.08902-2.009636 0.624245-2.734499 1.29824-0.724863 0.661279-0.822522 1.518059-0.822522 2.637146 0 1.017351 0.06587 1.896427 0.727145 2.570422 0.673995 0.673995 1.405584 0.945799 2.829876 1.365456zm-7.622187 21.646838v-4.919848h2.032583c0.05087 1.742214 0.629647 2.489351 1.596132 3.379533 0.966484 0.890183 2.085938 1.502164 3.993472 1.540315v-8.855726c-2.924885-0.813881-4.661108-2.2922-5.843779-3.347702-1.182671-1.068219-1.778408-2.479836-1.778408-4.234767 0-2.034703 0.70383-3.668781 2.102688-4.90232 1.398859-1.233539 3.026988-2.122645 5.519499-2.275247v-4.919355h3.048875v4.919848c1.389741 0.305706 1.797378 0.514576 2.876829 0.825028 1.185074 0.340829 2.597263 0.718931 3.729066 1.240324v4.822435h-2.032583c-0.152603-1.47516-0.952545-2.463879-1.83001-3.31591-0.877466-0.852032-1.418268-1.489486-2.743302-1.603938v8.855726c3.128355 0.852031 4.491875 1.751771 5.73813 2.858141 1.258972 1.093653 1.884057 2.185697 1.884057 4.029646 0 2.111004-0.733179 4.179108-2.208338 5.450797s-2.730585 2.230205-5.413849 2.420959v4.919848h-3.048875v-4.919848c-1.220822-0.02543-2.168598-0.430765-3.478437-0.761405-1.30984-0.317922-2.719458-0.570689-4.14375-1.206534z" style="fill:#ffffff"/>
 </g>
</svg>

<svg xmlns="http://www.w3.org/2000/svg" width="48" height="48" version="1">
 <path style="opacity:0.2" d="M 4.4595685,26.106063 22.893938,44.540432 c 0.612758,0.612758 1.599366,0.612759 2.212124,0 l 18.43437,-18.434369 c 0.612758,-0.612759 0.612758,-1.599366 0,-2.212124 L 25.106062,5.4595699 c -0.612758,-0.612759 -1.599366,-0.612759 -2.212124,0 L 4.4595685,23.893939 c -0.6127589,0.612758 -0.6127582,1.599365 0,2.212124 z M 4.3610905,30.154764 18.845237,44.63891 c 0.481454,0.481454 1.256645,0.481454 1.738098,10e-7 L 35.067481,30.154765 c 0.481454,-0.481453 0.481454,-1.256645 0,-1.738098 L 20.583335,13.932521 c -0.481453,-0.481453 -1.256644,-0.481453 -1.738098,1e-6 L 4.3610905,28.416668 c -0.4814528,0.481452 -0.4814528,1.256644 0,1.738096 z m 8.5714275,0 14.484147,14.484146 c 0.481453,0.481452 1.256644,0.481452 1.738097,0 L 43.638908,30.154764 c 0.481454,-0.481454 0.481454,-1.256645 10e-7,-1.738098 L 29.154762,13.93252 c -0.481453,-0.481453 -1.256644,-0.481453 -1.738098,0 L 12.932517,28.416666 c -0.481452,0.481453 -0.481452,1.256644 10e-7,1.738098 z"/>
 <rect style="fill:#4bae4f" width="22.942" height="22.942" x="22.47" y="-17.53" rx="1.229" ry="1.229" transform="matrix(0.7071068,0.70710677,0.7071068,-0.70710677,0,0)"/>
 <rect style="fill:#4bae4f" width="22.942" height="22.942" x="28.53" y="-11.47" rx="1.229" ry="1.229" transform="matrix(0.7071068,0.70710677,0.7071068,-0.70710677,0,0)"/>
 <rect style="fill:#f58411" width="29.199" height="29.199" x="19.34" y="-14.6" rx="1.564" ry="1.564" transform="matrix(0.7071068,0.70710677,0.7071068,-0.70710677,0,0)"/>
 <path style="opacity:0.2;fill:#ffffff" d="m 23.999024,4.0000006 c -0.399841,0 -0.799089,0.1526052 -1.105469,0.4589844 L 4.4599615,22.892579 c -0.436004,0.436004 -0.555561,1.060268 -0.371094,1.605469 0.074854,-0.220362 0.194812,-0.429187 0.371094,-0.605469 L 22.893555,5.458985 c 0.612759,-0.6127584 1.600133,-0.6127584 2.212891,0 L 43.54004,23.892579 c 0.176282,0.176282 0.296239,0.385107 0.371094,0.605469 0.184466,-0.545201 0.06491,-1.169465 -0.371094,-1.605469 L 25.106446,4.458985 C 24.800067,4.1526058 24.398866,4.0000006 23.999024,4.0000006 Z"/>
 <g style="font-size:39.06629181px;line-height:1.25;font-family:'DejaVu Serif';letter-spacing:0px;word-spacing:0px;opacity:0.2" transform="matrix(0.6559797,0,0,0.67752773,2.6666667,3.6666669)">
  <path d="m 34.045769,42.310691 c 1.437009,-0.127169 1.855842,-0.447901 2.606139,-1.14733 0.763013,-0.699429 0.950881,-1.580443 0.950881,-2.788548 0,-1.093653 -0.03254,-2.527426 -0.782839,-3.290439 -0.750297,-0.763013 -1.324456,-1.235185 -2.774181,-1.629409 z M 30.996894,20.663853 c -1.30984,0.08902 -2.009636,0.624245 -2.734499,1.29824 -0.724863,0.661279 -0.822522,1.518059 -0.822522,2.637146 0,1.017351 0.06587,1.896427 0.727145,2.570422 0.673995,0.673995 1.405584,0.945799 2.829876,1.365456 z m -7.622187,21.646838 v -4.919848 h 2.032583 c 0.05087,1.742214 0.629647,2.489351 1.596132,3.379533 0.966484,0.890183 2.085938,1.502164 3.993472,1.540315 v -8.855726 c -2.924885,-0.813881 -4.661108,-2.2922 -5.843779,-3.347702 -1.182671,-1.068219 -1.778408,-2.479836 -1.778408,-4.234767 0,-2.034703 0.70383,-3.668781 2.102688,-4.90232 1.398859,-1.233539 3.026988,-2.122645 5.519499,-2.275247 v -4.919355 h 3.048875 v 4.919848 c 1.389741,0.305706 1.797378,0.514576 2.876829,0.825028 1.185074,0.340829 2.597263,0.718931 3.729066,1.240324 v 4.822435 h -2.032583 c -0.152603,-1.47516 -0.952545,-2.463879 -1.83001,-3.31591 -0.877466,-0.852032 -1.418268,-1.489486 -2.743302,-1.603938 v 8.855726 c 3.128355,0.852031 4.491875,1.751771 5.73813,2.858141 1.258972,1.093653 1.884057,2.185697 1.884057,4.029646 0,2.111004 -0.733179,4.179108 -2.208338,5.450797 -1.475159,1.271689 -2.730585,2.230205 -5.413849,2.420959 v 4.919848 H 30.996894 V 44.27863 c -1.220822,-0.02543 -2.168598,-0.430765 -3.478437,-0.761405 -1.30984,-0.317922 -2.719458,-0.570689 -4.14375,-1.206534 z"/>
 </g>
 <g style="font-size:39.06629181px;line-height:1.25;font-family:'DejaVu Serif';letter-spacing:0px;word-spacing:0px;fill:#ffffff" transform="matrix(0.6559797,0,0,0.67752773,2.6666667,2.6666669)">
  <path style="fill:#ffffff" d="m 34.045769,42.310691 c 1.437009,-0.127169 1.855842,-0.447901 2.606139,-1.14733 0.763013,-0.699429 0.950881,-1.580443 0.950881,-2.788548 0,-1.093653 -0.03254,-2.527426 -0.782839,-3.290439 -0.750297,-0.763013 -1.324456,-1.235185 -2.774181,-1.629409 z M 30.996894,20.663853 c -1.30984,0.08902 -2.009636,0.624245 -2.734499,1.29824 -0.724863,0.661279 -0.822522,1.518059 -0.822522,2.637146 0,1.017351 0.06587,1.896427 0.727145,2.570422 0.673995,0.673995 1.405584,0.945799 2.829876,1.365456 z m -7.622187,21.646838 v -4.919848 h 2.032583 c 0.05087,1.742214 0.629647,2.489351 1.596132,3.379533 0.966484,0.890183 2.085938,1.502164 3.993472,1.540315 v -8.855726 c -2.924885,-0.813881 -4.661108,-2.2922 -5.843779,-3.347702 -1.182671,-1.068219 -1.778408,-2.479836 -1.778408,-4.234767 0,-2.034703 0.70383,-3.668781 2.102688,-4.90232 1.398859,-1.233539 3.026988,-2.122645 5.519499,-2.275247 v -4.919355 h 3.048875 v 4.919848 c 1.389741,0.305706 1.797378,0.514576 2.876829,0.825028 1.185074,0.340829 2.597263,0.718931 3.729066,1.240324 v 4.822435 h -2.032583 c -0.152603,-1.47516 -0.952545,-2.463879 -1.83001,-3.31591 -0.877466,-0.852032 -1.418268,-1.489486 -2.743302,-1.603938 v 8.855726 c 3.128355,0.852031 4.491875,1.751771 5.73813,2.858141 1.258972,1.093653 1.884057,2.185697 1.884057,4.029646 0,2.111004 -0.733179,4.179108 -2.208338,5.450797 -1.475159,1.271689 -2.730585,2.230205 -5.413849,2.420959 v 4.919848 H 30.996894 V 44.27863 c -1.220822,-0.02543 -2.168598,-0.430765 -3.478437,-0.761405 -1.30984,-0.317922 -2.719458,-0.570689 -4.14375,-1.206534 z"/>
 </g>
</svg>
